icons/star-stroke-15.svg

<?xml version="1.0" encoding="utf-8"?>
<!-- Generator: Adobe Illustrator 19.2.1, SVG Export Plug-In . SVG Version: 6.00 Build 0)  -->
<!DOCTYPE svg PUBLIC "-//W3C//DTD SVG 1.1//EN" "http://www.w3.org/Graphics/SVG/1.1/DTD/svg11.dtd">
<svg version="1.1" id="Layer_1" xmlns="http://www.w3.org/2000/svg" xmlns:xlink="http://www.w3.org/1999/xlink" x="0px" y="0px"
	 width="15px" height="15px" viewBox="0 0 15 15" style="enable-background:new 0 0 15 15;" xml:space="preserve">
<path id="path4749-2-8-2" style="fill:#010101;" d="M7.5,3.19l1.07,2.68L8.82,6.5h3l-2,1.75l-0.5,0.44l0.23,0.63l1,3.13l-2.48-1.77
	l-0.57-0.4l-0.57,0.4l-2.52,1.77l1-3.13l0.21-0.63l-0.5-0.44l-2-1.75h3l0.25-0.63L7.5,3.19 M7.5,0.5l-2,5h-5l4,3.5l-2,6l5-3.5l5,3.5
	l-2-6l4-3.5h-5L7.5,0.5L7.5,0.5z"/>
</svg>

<svg id="Layer_1" data-name="Layer 1" xmlns="http://www.w3.org/2000/svg" width="15" height="15" viewBox="0 0 15 15">
  <title>star-stroke-15</title>
  <path id="path4749-2-8-2" d="M7.5,3.19L8.57,5.87,8.82,6.5h3l-2,1.75-0.5.44L9.55,9.32l1,3.13L8.07,10.68l-0.57-.4-0.57.4L4.41,12.45l1-3.13,0.21-.63-0.5-.44-2-1.75h3l0.25-.63L7.5,3.19m0-2.69-2,5h-5L4.5,9l-2,6,5-3.5,5,3.5-2-6,4-3.5h-5l-2-5h0Z" fill="#010101"/>
</svg>
